packages/components/bolt-icons/src/svgs/product/services/launchpad.svg

<?xml version="1.0" encoding="UTF-8"?>
<svg width="32px" height="32px" viewBox="0 0 32 32" version="1.1" xmlns="http://www.w3.org/2000/svg" xmlns:xlink="http://www.w3.org/1999/xlink">
    <!-- Generator: Sketch 49.3 (51167) - http://www.bohemiancoding.com/sketch -->
    <title>brand icons/community/brand-launchpad</title>
    <desc>Created with Sketch.</desc>
    <defs>
        <path d="M16.0263,23.316 C15.9643,23.338 15.9093,23.366 15.8543,23.4 C15.4653,23.589 15.1323,23.742 14.8813,23.852 L8.1353,17.109 C8.2323,16.888 8.3623,16.604 8.5213,16.273 C8.6153,16.159 8.6773,16.026 8.7143,15.879 C9.8313,13.636 12.1573,9.633 16.0943,5.697 C20.8803,0.917 27.6293,2.012 29.5473,2.452 C29.9853,4.37 31.0823,11.115 26.2973,15.897 C22.3183,19.876 18.2543,22.213 16.0263,23.316 M19.0813,27.313 C18.3393,28.053 17.3433,28.629 16.4063,29.057 C17.1363,27.473 17.3283,25.928 17.3603,24.89 C18.2023,24.461 19.2273,23.89 20.3753,23.167 C20.4033,24.225 20.2673,26.127 19.0813,27.313 M2.9503,15.588 C3.3783,14.656 3.9523,13.667 4.6893,12.928 C5.8763,11.743 7.7533,11.602 8.8133,11.631 C8.0893,12.78 7.5193,13.806 7.0893,14.648 C5.9653,14.68 4.4703,14.885 2.9503,15.588 M31.3243,1.335 C31.4443,1.719 34.1793,10.846 27.7123,17.31 C25.8353,19.187 23.9553,20.707 22.2363,21.923 C22.2533,21.974 22.2823,22.016 22.2913,22.07 C22.3193,22.241 22.9443,26.278 20.4953,28.726 C18.1983,31.02 14.2453,31.938 14.0783,31.976 C14.0043,31.992 13.9293,32 13.8563,32 C13.4983,32 13.1603,31.807 12.9813,31.483 C12.7653,31.093 12.8353,30.608 13.1493,30.294 C14.5593,28.886 15.0823,27.177 15.2683,25.861 C15.1253,25.919 15.0223,25.959 14.9953,25.968 C14.8813,26.01 14.7643,26.031 14.6473,26.031 C14.3863,26.031 14.1303,25.929 13.9403,25.738 L6.2493,18.051 C5.9723,17.775 5.8823,17.363 6.0183,16.997 C6.0283,16.971 6.0663,16.873 6.1213,16.738 C4.7653,16.927 3.1043,17.461 1.7073,18.858 C1.5143,19.05 1.2583,19.15 1.0003,19.15 C0.8353,19.15 0.6693,19.109 0.5173,19.026 C0.1273,18.811 -0.0737,18.363 0.0253,17.929 C0.0623,17.762 0.9803,13.811 3.2753,11.515 C5.7243,9.068 9.7633,9.691 9.9343,9.719 C9.9803,9.726 10.0163,9.753 10.0593,9.766 C11.2783,8.045 12.8003,6.163 14.6803,4.284 C21.1483,-2.18 30.2803,0.557 30.6663,0.676 C30.9803,0.774 31.2263,1.02 31.3243,1.335 Z M22.8091,5.2755 L22.8081,5.2755 C21.7631,5.2755 20.7791,5.6825 20.0401,6.4215 C19.3011,7.1605 18.8931,8.1435 18.8941,9.1885 C18.8941,10.2345 19.3021,11.2165 20.0411,11.9555 C20.8031,12.7175 21.8051,13.0985 22.8071,13.0985 C23.8091,13.0985 24.8111,12.7175 25.5751,11.9565 C25.5761,11.9555 25.5761,11.9555 25.5761,11.9545 C27.1011,10.4275 27.1001,7.9465 25.5761,6.4225 C24.8381,5.6825 23.8551,5.2755 22.8091,5.2755 Z M24.1611,10.5425 C23.4131,11.2875 22.2001,11.2875 21.4551,10.5415 C21.0931,10.1805 20.8941,9.6995 20.8941,9.1885 C20.8941,8.6765 21.0931,8.1965 21.4541,7.8345 C21.8161,7.4725 22.2971,7.2745 22.8081,7.2745 L22.8091,7.2745 C23.3201,7.2745 23.8001,7.4735 24.1621,7.8345 C24.9071,8.5805 24.9071,9.7945 24.1611,10.5425 Z M4.7268,22.4857 C6.0438,21.1687 8.1868,21.1707 9.5028,22.4867 C10.8178,23.8047 10.8178,25.9457 9.5028,27.2617 L9.5018,27.2627 C8.4168,28.3447 5.1188,28.8447 4.1348,28.9727 C4.0918,28.9767 4.0488,28.9797 4.0058,28.9797 C3.7428,28.9797 3.4878,28.8757 3.2988,28.6867 C3.0798,28.4687 2.9748,28.1597 3.0148,27.8527 C3.1418,26.8677 3.6408,23.5707 4.7268,22.4857 Z M8.0878,25.8487 C8.6248,25.3117 8.6248,24.4367 8.0878,23.8997 C7.8188,23.6317 7.4668,23.4967 7.1138,23.4967 C6.7618,23.4967 6.4088,23.6317 6.1398,23.8987 C5.8398,24.1997 5.4738,25.4577 5.2178,26.7687 C6.5268,26.5127 7.7858,26.1477 8.0878,25.8487 Z" id="path-1"></path>
    </defs>
    <g id="brand-icons/community/brand-launchpad" stroke="none" stroke-width="1" fill="none" fill-rule="evenodd">
        <mask id="mask-2" fill="white">
            <use xlink:href="#path-1"></use>
        </mask>
        <g id="Mask"></g>
        <g id="z_atom/Icon-color/brand-black" mask="url(#mask-2)" fill="#2D2E33">
            <rect id="Rectangle-15" x="0" y="0" width="32" height="32"></rect>
        </g>
    </g>
</svg>

<svg id="a46b9d85-28c5-4fcb-89d3-b43b2562eec3" data-name="Layer 1" xmlns="http://www.w3.org/2000/svg" viewBox="0 0 32.01 31.98"><title>launchpad</title><path id="b9e7e68b-ea2e-4d2d-945d-6e926e63f7f9" data-name="path-1" d="M16,23.3c-.1,0-.1,0-.2.1a9.29,9.29,0,0,0-1,.5L8.1,17.2a5.9,5.9,0,0,1,.4-.8.52.52,0,0,0,.2-.4A39.83,39.83,0,0,1,16.1,5.8C20.9.9,27.6,2,29.5,2.5c.4,1.9,1.5,8.7-3.2,13.4A38.3,38.3,0,0,1,16,23.3m3.1,4A8.28,8.28,0,0,1,16.4,29a13.21,13.21,0,0,0,1-4.2c.8-.4,1.9-1,3-1.7a6,6,0,0,1-1.3,4.2M3,15.6a11.1,11.1,0,0,1,1.7-2.7,5.85,5.85,0,0,1,4.1-1.3c-.7,1.1-1.3,2.2-1.7,3a12.15,12.15,0,0,0-4.1,1M31.3,1.3c.1.4,2.9,9.5-3.6,16a41.85,41.85,0,0,1-5.5,4.6c0,.1,0,.1.1.1,0,.2.7,4.2-1.8,6.7a14.1,14.1,0,0,1-6.4,3.2h-.2a1.05,1.05,0,0,1-.9-.5,1.06,1.06,0,0,1,.2-1.2,7.75,7.75,0,0,0,2.1-4.4,1.24,1.24,0,0,0-.3.2c-.1,0-.2.1-.3.1a.91.91,0,0,1-.7-.3L6.3,18.1A1.13,1.13,0,0,1,6,17a.77.77,0,0,1,.1-.3,7.48,7.48,0,0,0-4.4,2.1.91.91,0,0,1-.7.3A.9.9,0,0,1,.5,19,1,1,0,0,1,0,17.9a15.33,15.33,0,0,1,3.2-6.4C5.6,9.1,9.7,9.7,9.9,9.7H10a41.85,41.85,0,0,1,4.6-5.5C21.1-2.3,30.2.5,30.6.6A1.2,1.2,0,0,1,31.3,1.3Zm-8.5,4h0A4.3,4.3,0,0,0,20,6.4a3.55,3.55,0,0,0-1.1,2.8A4.3,4.3,0,0,0,20,12a3.84,3.84,0,0,0,2.8,1.1A4.3,4.3,0,0,0,25.6,12h0a3.92,3.92,0,0,0,0-5.5A3.78,3.78,0,0,0,22.8,5.3Zm1.4,5.2a2,2,0,0,1-2.7,0,1.82,1.82,0,0,1-.6-1.4,2,2,0,0,1,.6-1.4,1.82,1.82,0,0,1,1.4-.6h0a2,2,0,0,1,1.4.6A2.25,2.25,0,0,1,24.2,10.5ZM4.7,22.5a3.39,3.39,0,1,1,4.8,4.8h0C8.4,28.4,5.1,28.9,4.1,29H4a.91.91,0,0,1-.7-.3,1.14,1.14,0,0,1-.3-.8C3.1,26.9,3.6,23.6,4.7,22.5Zm3.4,3.3a1.39,1.39,0,0,0,0-1.9,1.28,1.28,0,0,0-1-.4,1.28,1.28,0,0,0-1,.4,7.51,7.51,0,0,0-.9,2.9A9.18,9.18,0,0,0,8.1,25.8Z" transform="translate(0.03 0.08)" fill="#1f2555" fill-rule="evenodd"/></svg>
